X: 40981
T: Trip To Dorrigo, The
R: reel
M: 4/4
K: Gmajor
G3A B2dB|AGEG A2BA|G~E3 EDB,D|DGBG AGED|
G3A B2dB|AGEG A2BA|G~E3 EDB,D|DEED DEED:|
BEEB BAGE|C2~C2 B,2B,2|A,CDE GABG|A3A A2GA|
A~B3 BAGE|C2~C2 B,2B,2|A,CDE GABA|GEED DEED:|

